X: 58
T: Shui ba adi
L: 1/8
M: 2/4
K: G
e g/ e/ g g/ a/ [I:setbarnb 1]| 
b2b2 | 
b b a b/ a/ | 
g> eg2 | 
g b a a/ b/ | 
g> eg2 | 
g e a a/ g/ | 
e> de2 | 
e g/ e/ g a/ b/ | 
b2b2 | 
e' e' d' e'/ d'/ | 
b> ab2 | 
b e' d' e'/ d'/ | 
b> ab2 | 
b g a a/ g/ | 
e> de2 | 
g e g g/ a/ | 
b4 | 
b2b/ a/ g/ e/ | 
b4 | 
e g/ e/ g b | 
a4 | 
g e a g/ e/ | 
e4 | 
b g b b | 
d'4 | 
b b/ d'/ e' d'/ b/ | 
d'4 | 
b g b b/ d'/ | 
b4 | 
b g a g/ e/ | 
g4 | 
b g a a/ g/ | 
e4 | 
g4 | 
e4 | 
b4 | 
B3g | 
e4 |]

@@@ Tune index: 8726
